X:1
T:Arie "Dignare, o Domine"
T:Arie "Dignare, o Domine"
T:(Aus dem Dettinger Te Deum)
%%score { 1 | ( 2 4 ) | 3 }
L:1/8
Q:1/4=30
M:4/4
K:D
V:1 treble nm="Orgue à tuyaux" snm="Org."
V:2 bass 
V:4 bass 
V:3 bass-8 
V:1
"^Largo""^la melodia ben tenuta" z2 F2 (d3 c) | ^A4 z2 B2 | G3 F F3 F | =c3 (B/A/) G2 z (c/B/) | %4
 G3 (F/E/) E2 z2 | ^G3 G G4- | G B2 ^A =G2 z ^d | (^d^G) z G (c3 F) | (E ^D2) ^G E2 z c | %9
 c E2 E (F/E/F) z2 | B2 BB B3 d | d =c2 B ^A3 A | B6 (FE) | D>D GG G>F F2 | z2 c2 F>F (Fd/4c/4B/) | %15
 ^A2- (A>B) B4- | Befg d2 (Tc>B) | !fermata!B8 |] %18
V:2
 [B,D][B,D][B,D][B,D] [F,D][F,D][F,D][F,D] | [CE][CE][CE][CE] [B,F][B,F][B,F][B,F] | %2
 [B,D][B,D][A,C][A,C] [A,D][A,D][A,D][A,D] |[K:treble] [=CFA][CFA][CFA][CF] [B,E][B,E][CEF][EF] | %4
 [B,E][B,E][B,E][B,^D] [G,B,][G,B,][B,EG][B,EG] | [B,E][B,E][B,E][B,E] [B,^D][B,D][B,D][B,D] | %6
 [B,^E^G][B,EG][B,EG][B,E] [^A,^D][A,D][D=GA][DGA] | [^D^G][DG][DG][DG] [EG][EG][CF][CF] | %8
 [^G,C]([G,C][G,=C])[G,C] [G,^C][G,C][G,CE][E^G] | [^E^G][^G,C][G,C][G,C] [F,C][F,C][F,C][F,C] | %10
 [B,F][B,F][B,E][B,E] [DF][DF][DF][DF] | [EG][EG][EG][DG] [^CF][CF][CF][CF] | %12
 [DF][DF][DG][DG] [DF][DF][^A,C][A,C] | [F,B,][F,B,][B,D][B,D] [CE][CE][CE][CE] | %14
 [CF^A][CFA][CGA][CGA] B,B,B,[EG] | [CF][CF][CF][EF] [DF][DF][^DF][DF] | %16
 [EG][GB][FB][GB] [FB][FB][E^A][EA] | !fermata!B8 |] %18
V:3
 B,,3 B,, B,,3 B,, | C,3 C, D,3 D, | E,E,A,,A,, D,3 D, | ^D,3 D, E,E,A,,A,, | B,,3 B,, E,3 E, | %5
 E,3 E, ^D,3 D, | D,3 D, C,3 C, | B,,3 B,, =A,,3 A,, | ^G,,3 G,, C,3 C, | B,,3 B,, A,,3 A,, | %10
 =G,,3 G,, F,,3 F,, | E,,3 E,, E,,3 E,, | D,,2 E,,2 F,,3 F,, | B,,3 B,, ^A,,3 A,, | E,3 E, D,3 E, | %15
 F,2 F,,2 B,,2 =A,,2 | G,,G,D,E, F,3 F, | !fermata!B,,8 |] %18
V:4
 x8 | x8 | x8 |[K:treble] x8 | x8 | x8 | x8 | x8 | x8 | x8 | x8 | x8 | x8 | x8 | x8 | x8 | x8 | %17
 !fermata!D8 |] %18

